X: 1
T: Joe Foster's Jig
C: Lindsay Ross
R: jig
Z: 2014 John Chambers <jc:trillian.mit.edu>
S: Image from George Meikle, via Sylvia Miskoe
N: Part of a set for Mrs Stewart's Jig, in a dance program from 2012
M: 6/8
L: 1/8
K: A
E |\
"A"A3 "E7"A2B | "A"cdc "E7"BAB | "F#m"c2f f2g | "F#m"aff f2g |\
"D"a3 "Bm"a2f | "A"efe "F#7"cde | "Bm"f2F "B7"B2A | "E"GFE "E7"DCB, ||
"A"A,3 "E7"A2B | "A"cdc "E7"BAB | "F#m"c2f f2g | "F#m"aff f2g |\
"D"a3 "Bm"a2f | "A"efe "F#7"cde | "Bm"d2F "E7"GAB | "A"BAA "E7"A3 |]
[|\
"A"Ace "D"a2f | "A"efe "E7"dcB | "A"Ace "F#m"aga | "Bm"bff f3 |\
"Bm"Bdf "B7"b2a | "E"gab "B7"agf | "E"g2b "B7"agf | "E"efe "E7"dcB ||
"A"Ace "D"a2f | "A"efe "E7"dcB | "A"Ace "A7"aga | "D"bff f3 |\
"D"agb "Bm"agf | "A"efe "F#7"cde | "Bm"d2F "E7"GAB | "A"BAA A3 |]
